public/images/case-studies/maikeinc/orange-pattern.svg

<svg width="440" height="485" viewBox="0 0 440 485" fill="none" xmlns="http://www.w3.org/2000/svg">
<path d="M-88.5714 233.846H-14.5711L-28.6661 152.981H-88.5714C-120.286 152.981 -144.952 128.37 -144.952 96.7273C-144.952 65.0846 -120.286 40.4735 -88.5714 40.4735H-46.2852L-60.3808 -33.3595C-67.4284 -61.4864 -46.2854 -89.6133 -14.5711 -96.645C13.6194 -103.677 41.81 -82.5816 48.8576 -50.9388L66.4767 40.4735H175.715L161.62 -33.3595C154.572 -61.4864 175.715 -89.6133 207.429 -96.645C235.62 -103.677 263.81 -82.5816 270.858 -50.9388L288.477 40.4735H383.62C415.334 40.4735 440 65.0846 440 96.7273C440 128.37 408.287 152.981 376.572 152.981H302.572L316.667 233.846H376.572C408.287 233.846 432.953 258.457 432.953 290.1C432.953 321.742 408.287 346.353 376.572 346.353H334.286L348.382 420.187C355.429 448.313 334.286 476.44 302.572 483.472C281.429 490.504 246.191 472.924 239.143 437.766L221.524 346.353H112.286L126.381 420.187C133.429 448.313 112.286 476.44 80.5717 483.472C59.4289 490.504 24.1906 472.924 17.143 437.766L-0.476044 346.353H-95.6189C-127.333 346.353 -152 321.742 -152 290.1C-141.428 258.457 -116.762 233.846 -88.5714 233.846ZM98.1908 233.846H207.429L193.334 152.981H84.0958L98.1908 233.846Z" fill="url(#paint0_linear)" fill-opacity="0.5"/>
<path d="M-12.6008 233.503L-12.1924 235.846H-14.5711H-88.5714C-115.456 235.846 -139.511 259.352 -149.999 290.424C-149.831 320.801 -126.124 344.353 -95.6189 344.353H-0.476044H1.17529L1.48782 345.975L19.104 437.373C19.1046 437.376 19.1052 437.379 19.1058 437.382C22.5133 454.368 32.7254 467.107 44.6515 474.757C56.6414 482.447 70.106 484.845 79.9406 481.574L80.0383 481.542L80.1388 481.519C111.058 474.664 131.145 447.427 124.441 420.673L124.428 420.617L124.417 420.562L110.322 346.728L109.868 344.353H112.286H221.524H223.176L223.488 345.975L241.104 437.373C241.105 437.376 241.105 437.379 241.106 437.382C244.514 454.368 254.726 467.107 266.652 474.757C278.642 482.447 292.106 484.845 301.941 481.574L302.039 481.542L302.139 481.519C333.059 474.664 353.145 447.427 346.442 420.673L346.428 420.617L346.417 420.562L332.322 346.729L331.868 344.353H334.286H376.572C407.186 344.353 430.953 320.634 430.953 290.1C430.953 259.566 407.186 235.846 376.572 235.846H316.667H314.986L314.697 234.189L300.602 153.325L300.193 150.981H302.572H376.572C391.932 150.981 407.335 145.012 418.884 135.196C430.426 125.387 438 111.847 438 96.7273C438 66.1934 414.234 42.4735 383.62 42.4735H288.477H286.826L286.513 40.8521L268.9 -50.5319C262.02 -81.3566 234.732 -101.394 207.913 -94.7045L207.888 -94.6981L207.862 -94.6925C176.943 -87.837 156.856 -60.6002 163.56 -33.8456L163.573 -33.7904L163.584 -33.7346L177.679 40.0985L178.133 42.4735H175.715H66.4767H64.8253L64.5128 40.8521L46.8993 -50.5319C40.0201 -81.3566 12.732 -101.394 -14.0871 -94.7045L-14.1125 -94.6981L-14.1382 -94.6925C-45.0576 -87.837 -65.1445 -60.6002 -58.4407 -33.8456L-58.4269 -33.7905L-58.4163 -33.7346L-44.3207 40.0985L-43.8672 42.4735H-46.2852H-88.5714C-119.185 42.4735 -142.952 66.1934 -142.952 96.7273C-142.952 127.261 -119.185 150.981 -88.5714 150.981H-28.6661H-26.9846L-26.6958 152.638L-12.6008 233.503ZM98.1908 235.846H96.5092L96.2205 234.189L82.1255 153.325L81.717 150.981H84.0958H193.334H195.015L195.304 152.638L209.399 233.502L209.808 235.846H207.429H98.1908Z" stroke="#FF8A00" stroke-opacity="0.4" stroke-width="4"/>
<defs>
<linearGradient id="paint0_linear" x1="144" y1="-98" x2="144" y2="485" gradientUnits="userSpaceOnUse">
<stop stop-color="#FF9900"/>
<stop offset="1" stop-color="#FF6B00"/>
</linearGradient>
</defs>
</svg>

<svg xmlns="http://www.w3.org/2000/svg" width="440" height="485" fill="none" xmlns:v="https://vecta.io/nano"><path d="M-88.571 233.846h74l-14.095-80.865h-59.905c-31.715 0-56.381-24.611-56.381-56.254s24.666-56.254 56.381-56.254h42.286l-14.096-73.833c-7.048-28.127 14.095-56.254 45.81-63.285 28.191-7.032 56.381 14.063 63.429 45.706l17.619 91.412h109.238L161.62-33.359c-7.048-28.127 14.095-56.254 45.809-63.285 28.191-7.032 56.381 14.063 63.429 45.706l17.619 91.412h95.143c31.714 0 56.38 24.611 56.38 56.254s-31.713 56.254-63.428 56.254h-74l14.095 80.865h59.905c31.715 0 56.381 24.611 56.381 56.254s-24.666 56.253-56.381 56.253h-42.286l14.096 73.834c7.047 28.126-14.096 56.253-45.81 63.285-21.143 7.032-56.381-10.548-63.429-45.706l-17.619-91.413H112.286l14.095 73.834c7.048 28.126-14.095 56.253-45.809 63.285-21.143 7.032-56.381-10.548-63.429-45.706L-.476 346.353h-95.143c-31.714 0-56.381-24.611-56.381-56.253 10.572-31.643 35.238-56.254 63.429-56.254zm186.762 0h109.238l-14.095-80.865H84.096l14.095 80.865z" fill="url(#A)" fill-opacity=".5"/><path d="M-12.601 233.503l.408 2.343h-2.379-74c-26.885 0-50.94 23.506-61.428 54.578.168 30.377 23.875 53.929 54.38 53.929H-.476h1.651l.313 1.622 17.616 91.398c3.409 16.995 13.621 29.734 25.548 37.384 11.99 7.69 25.454 10.088 35.289 6.817l.098-.032.1-.023c30.919-6.855 51.006-34.092 44.302-60.846l-.013-.056-.011-.055-14.095-73.834-.454-2.375h2.418 109.238 1.652l.312 1.622 17.616 91.398c3.41 16.995 13.622 29.734 25.548 37.384 11.99 7.69 25.454 10.088 35.289 6.817l.098-.032.1-.023c30.92-6.855 51.006-34.092 44.303-60.846l-.014-.056-.011-.055-14.095-73.833-.454-2.376h2.418 42.286c30.614 0 54.381-23.719 54.381-54.253s-23.767-54.254-54.381-54.254h-59.905-1.681l-.289-1.657-14.095-80.864-.409-2.344h2.379 74c15.36 0 30.763-5.969 42.312-15.785C430.426 125.387 438 111.847 438 96.727c0-30.534-23.766-54.254-54.38-54.254h-95.143-1.651l-.313-1.621L268.9-50.532c-6.88-30.825-34.168-50.862-60.987-44.173l-.025.006-.026.006c-30.919 6.855-51.006 34.092-44.302 60.847l.013.055.011.056 14.095 73.833.454 2.375h-2.418H66.477h-1.651l-.312-1.621-17.614-91.384c-6.879-30.825-34.167-50.862-60.986-44.173l-.025.006-.026.006C-45.058-87.837-65.144-60.6-58.441-33.846l.014.055.011.056 14.096 73.833.454 2.375h-2.418-42.286c-30.614 0-54.381 23.72-54.381 54.254s23.767 54.254 54.381 54.254h59.905 1.681l.289 1.657 14.095 80.865zm110.792 2.343h-1.682l-.289-1.657-14.095-80.864-.409-2.344h2.379 109.238 1.681l.289 1.657 14.095 80.864.409 2.344h-2.379H98.191z" stroke="#ff8a00" stroke-opacity=".4" stroke-width="4"/><defs><linearGradient id="A" x1="144" y1="-98" x2="144" y2="485" gradientUnits="userSpaceOnUse"><stop stop-color="#f90"/><stop offset="1" stop-color="#ff6b00"/></linearGradient></defs></svg>
